lib/functional/office&editing/file-html.svg

<svg xmlns="http://www.w3.org/2000/svg" fill="none" stroke="currentColor" aria-hidden="true" viewBox="0 0 32 32"><g id="Icon-FileHtml"><g clip-path="url(#clip0_12_1653)"><g id="size=md (32px)"><g id="FileHtml"><path id="Vector" stroke-linecap="round" stroke-linejoin="round" stroke-width="2" d="M15 22H11"/><path id="Vector_2" stroke-linecap="round" stroke-linejoin="round" stroke-width="2" d="M13 27V22"/><path id="Vector_3" stroke-linecap="round" stroke-linejoin="round" stroke-width="2" d="M4.5 22V27"/><path id="Vector_4" stroke-linecap="round" stroke-linejoin="round" stroke-width="2" d="M8 22V27"/><path id="Vector_5" stroke-linecap="round" stroke-linejoin="round" stroke-width="2" d="M4.5 24.5H8"/><path id="Vector_6" stroke-linecap="round" stroke-linejoin="round" stroke-width="2" d="M26.5 22V27H29.5"/><path id="Vector_7" stroke-linecap="round" stroke-linejoin="round" stroke-width="2" d="M18 27V22L20.5 25.5L23 22V27"/><path id="Vector_8" stroke-linecap="round" stroke-linejoin="round" stroke-width="2" d="M6 17V5C6 4.73478 6.10536 4.48043 6.29289 4.29289C6.48043 4.10536 6.73478 4 7 4H19L26 11V17"/><path id="Vector_9" stroke-linecap="round" stroke-linejoin="round" stroke-width="2" d="M19 4V11H26"/></g></g></g></g><defs><clipPath id="clip0_12_1653"><rect width="32" height="32" fill="white" rx="5"/></clipPath></defs></svg>

<svg xmlns="http://www.w3.org/2000/svg" fill="none" stroke="currentColor" aria-hidden="true" viewBox="0 0 32 32"><g stroke="#101828" stroke-linecap="round" stroke-linejoin="round" stroke-width="2" clip-path="url(#a)"><path d="M15 22h-4m2 5v-5m-8.5 0v5M8 22v5m-3.5-2.5H8M26.5 22v5h3M18 27v-5l2.5 3.5L23 22v5M6 17V5a1 1 0 0 1 1-1h12l7 7v6"/><path d="M19 4v7h7"/></g><defs><clipPath id="a"><rect width="32" height="32" fill="#fff" rx="5"/></clipPath></defs></svg>
